packages/gestalt-icons-android/vr-theme/ic_vr_overview_gestalt.svg

<svg width="24" height="24" viewBox="0 0 24 24" fill="none" xmlns="http://www.w3.org/2000/svg">
<path fill-rule="evenodd" clip-rule="evenodd" d="M4 1C2.34315 1 1 2.34315 1 4V10C1 11.6569 2.34315 13 4 13H8C9.65685 13 11 11.6569 11 10V4C11 2.34315 9.65685 1 8 1H4ZM3 4C3 3.44772 3.44772 3 4 3H8C8.55228 3 9 3.44772 9 4V10C9 10.5523 8.55228 11 8 11H4C3.44772 11 3 10.5523 3 10V4Z" fill="black"/>
<path fill-rule="evenodd" clip-rule="evenodd" d="M16 23C14.3431 23 13 21.6569 13 20V14C13 12.3431 14.3431 11 16 11H20C21.6569 11 23 12.3431 23 14V20C23 21.6569 21.6569 23 20 23H16ZM15 20C15 20.5523 15.4477 21 16 21H20C20.5523 21 21 20.5523 21 20V14C21 13.4477 20.5523 13 20 13H16C15.4477 13 15 13.4477 15 14V20Z" fill="black"/>
<path fill-rule="evenodd" clip-rule="evenodd" d="M1 18C1 16.3431 2.34315 15 4 15H8C9.65685 15 11 16.3431 11 18V20C11 21.6569 9.65685 23 8 23H4C2.34315 23 1 21.6569 1 20V18ZM4 17C3.44772 17 3 17.4477 3 18V20C3 20.5523 3.44772 21 4 21H8C8.55228 21 9 20.5523 9 20V18C9 17.4477 8.55228 17 8 17H4Z" fill="black"/>
<path fill-rule="evenodd" clip-rule="evenodd" d="M16 9C14.3431 9 13 7.65685 13 6V4C13 2.34315 14.3431 1 16 1H20C21.6569 1 23 2.34315 23 4V6C23 7.65685 21.6569 9 20 9H16ZM15 6C15 6.55228 15.4477 7 16 7H20C20.5523 7 21 6.55228 21 6V4C21 3.44772 20.5523 3 20 3H16C15.4477 3 15 3.44772 15 4V6Z" fill="black"/>
</svg>

<svg xmlns="http://www.w3.org/2000/svg" width="24" height="24"><path d="M8 1a3 3 0 0 1 3 3v6a3 3 0 0 1-3 3H4a3 3 0 0 1-3-3V4a3 3 0 0 1 3-3zm-5 9a1 1 0 0 0 1 1h4a1 1 0 0 0 1-1V4a1 1 0 0 0-1-1H4a1 1 0 0 0-1 1zm13 13a3 3 0 0 1-3-3v-6a3 3 0 0 1 3-3h4a3 3 0 0 1 3 3v6a3 3 0 0 1-3 3zm-1-3a1 1 0 0 0 1 1h4a1 1 0 0 0 1-1v-6a1 1 0 0 0-1-1h-4a1 1 0 0 0-1 1zM1 18a3 3 0 0 1 3-3h4a3 3 0 0 1 3 3v2a3 3 0 0 1-3 3H4a3 3 0 0 1-3-3zm3-1a1 1 0 0 0-1 1v2a1 1 0 0 0 1 1h4a1 1 0 0 0 1-1v-2a1 1 0 0 0-1-1zm12-8a3 3 0 0 1-3-3V4a3 3 0 0 1 3-3h4a3 3 0 0 1 3 3v2a3 3 0 0 1-3 3zm-1-3a1 1 0 0 0 1 1h4a1 1 0 0 0 1-1V4a1 1 0 0 0-1-1h-4a1 1 0 0 0-1 1z"/></svg>
